res/luts/DANGER.CUBE
#Created by: Adobe Photoshop Export Color Lookup Plugin
TITLE "DANGER"
#LUT size
LUT_3D_SIZE 32
#data domain
DOMAIN_MIN 0.0 0.0 0.0
DOMAIN_MAX 1.0 1.0 1.0
#LUT data points
0.573029 0.351929 0.492859
0.573029 0.351929 0.492859
0.573029 0.351929 0.492859
0.573029 0.351929 0.492859
0.569580 0.351929 0.492859
0.569580 0.351929 0.492859
0.569580 0.351929 0.492859
0.569580 0.351929 0.492859
0.569580 0.351929 0.492859
0.569580 0.351929 0.492859
0.569580 0.351929 0.492859
0.569580 0.351929 0.492859
0.569580 0.351929 0.492859
0.569580 0.351929 0.492859
0.569580 0.351929 0.492859
0.569580 0.351929 0.488495
0.569580 0.351929 0.488495
0.569580 0.351929 0.488495
0.569580 0.351929 0.488495
0.569580 0.351929 0.488495
0.569580 0.347778 0.488495
0.569580 0.347778 0.488495
0.569580 0.347778 0.488495
0.569580 0.347778 0.488495
0.569580 0.347778 0.488495
0.569580 0.347778 0.488495
0.569580 0.347778 0.488495
0.566101 0.347778 0.488495
0.566101 0.347778 0.488495
0.566101 0.347778 0.488495
0.566101 0.347778 0.484100
0.566101 0.347778 0.484100
0.566101 0.347778 0.484100
0.566101 0.343628 0.484100
0.566101 0.343628 0.484100
0.566101 0.343628 0.484100
0.566101 0.343628 0.484100
0.566101 0.343628 0.484100
0.566101 0.343628 0.484100
0.566101 0.343628 0.484100
0.566101 0.343628 0.479767
0.566101 0.343628 0.479767
0.566101 0.343628 0.479767
0.562622 0.343628 0.479767
0.562622 0.343628 0.479767
0.562622 0.343628 0.479767
0.562622 0.343628 0.479767
0.562622 0.343628 0.479767
0.562622 0.343628 0.479767
0.562622 0.343628 0.479767
0.562622 0.343628 0.479767
0.562622 0.339539 0.479767
0.562622 0.339539 0.479767
0.562622 0.339539 0.479767
0.562622 0.339539 0.479767
0.562622 0.339539 0.475403
0.562622 0.339539 0.475403
0.562622 0.339539 0.475403
0.562622 0.339539 0.475403
0.562622 0.339539 0.475403
0.562622 0.339539 0.475403
0.559143 0.339539 0.475403
0.559143 0.339539 0.475403
0.559143 0.339539 0.475403
0.555634 0.331329 0.466766
0.555634 0.331329 0.466766
0.555634 0.331329 0.466766
0.555634 0.331329 0.466766
0.555634 0.331329 0.466766
0.555634 0.331329 0.466766
0.555634 0.331329 0.462463
0.555634 0.331329 0.462463
0.555634 0.331329 0.462463
0.552155 0.327240 0.462463
0.552155 0.327240 0.462463
0.552155 0.327240 0.462463
0.552155 0.327240 0.462463
0.552155 0.327240 0.462463
0.552155 0.327240 0.462463
0.552155 0.327240 0.462463
0.552155 0.327240 0.462463
0.552155 0.327240 0.462463
0.552155 0.327240 0.462463
0.552155 0.327240 0.462463
0.552155 0.327240 0.458130
0.552155 0.327240 0.458130
0.552155 0.327240 0.458130
0.552155 0.327240 0.458130
0.552155 0.323212 0.458130
0.552155 0.323212 0.458130
0.548645 0.323212 0.458130
0.548645 0.323212 0.458130
0.548645 0.323212 0.458130
0.548645 0.323212 0.458130
0.548645 0.323212 0.458130
0.548645 0.323212 0.453857
0.537994 0.307159 0.436768
0.537994 0.307159 0.436768
0.537994 0.307159 0.436768
0.537994 0.307159 0.436768
0.537994 0.307159 0.436768
0.537994 0.307159 0.436768
0.537994 0.307159 0.436768
0.537994 0.307159 0.436768
0.537994 0.307159 0.436768
0.537994 0.307159 0.436768
0.537994 0.307159 0.432526
0.534424 0.307159 0.432526
0.534424 0.303162 0.432526
0.534424 0.303162 0.432526
0.534424 0.303162 0.432526
0.534424 0.303162 0.432526
0.534424 0.303162 0.432526
0.534424 0.303162 0.432526
0.534424 0.303162 0.432526
0.534424 0.303162 0.432526
0.534424 0.303162 0.432526
0.534424 0.303162 0.428284
0.534424 0.303162 0.428284
0.534424 0.303162 0.428284
0.534424 0.303162 0.428284
0.530823 0.299225 0.428284
0.530823 0.299225 0.428284
0.530823 0.299225 0.428284
0.530823 0.299225 0.428284
0.530823 0.299225 0.428284
0.530823 0.299225 0.428284
0.530823 0.299225 0.424042
0.512756 0.275909 0.394775
0.512756 0.275909 0.394775
0.512756 0.275909 0.394775
0.512756 0.272064 0.394775
0.509064 0.272064 0.394775
0.509064 0.272064 0.394775
0.509064 0.272064 0.394775
0.509064 0.272064 0.394775
0.509064 0.272064 0.390625
0.509064 0.272064 0.390625
0.509064 0.272064 0.390625
0.509064 0.272064 0.390625
0.509064 0.272064 0.390625
0.509064 0.272064 0.390625
0.509064 0.272064 0.390625
0.509064 0.272064 0.390625
0.509064 0.268250 0.390625
0.509064 0.268250 0.390625
0.509064 0.268250 0.386505
0.505402 0.268250 0.386505
0.505402 0.268250 0.386505
0.505402 0.268250 0.386505
0.505402 0.268250 0.386505
0.505402 0.268250 0.386505
0.505402 0.268250 0.386505
0.505402 0.268250 0.386505
0.505402 0.264465 0.386505
0.505402 0.264465 0.382385
0.505402 0.264465 0.382385
0.505402 0.264465 0.382385
0.505402 0.264465 0.382385
0.501709 0.264465 0.382385
0.471710 0.227600 0.337860
0.471710 0.227600 0.337860
0.471710 0.227600 0.337860
0.471710 0.227600 0.333862
0.471710 0.227600 0.333862
0.471710 0.227600 0.333862
0.471710 0.227600 0.333862
0.471710 0.227600 0.333862
0.471710 0.227600 0.333862
0.471710 0.227600 0.333862
0.471710 0.227600 0.333862
0.467926 0.227600 0.333862
0.467926 0.224030 0.333862
0.467926 0.224030 0.333862
0.467926 0.224030 0.329895
0.467926 0.224030 0.329895
0.467926 0.224030 0.329895
0.467926 0.224030 0.329895
0.467926 0.224030 0.329895
0.467926 0.224030 0.329895
0.467926 0.224030 0.329895
0.467926 0.224030 0.329895
0.467926 0.220459 0.329895
0.464081 0.220459 0.325928
0.464081 0.220459 0.325928
0.464081 0.220459 0.325928
0.464081 0.220459 0.329895
0.464081 0.220459 0.325928
0.464081 0.220459 0.325928
0.464081 0.220459 0.325928
0.464081 0.220459 0.321991
0.464081 0.216919 0.321991
0.420776 0.175964 0.268066
0.420776 0.175964 0.268066
0.420776 0.175964 0.268066
0.420776 0.175964 0.264313
0.420776 0.175964 0.264313
0.420776 0.172668 0.264313
0.420776 0.172668 0.264313
0.420776 0.172668 0.260590
0.416718 0.172668 0.260590
0.416718 0.172668 0.264313
0.416718 0.172668 0.264313
0.416718 0.172668 0.264313
0.416718 0.172668 0.264313
0.416718 0.172668 0.260590
0.416718 0.172668 0.260590
0.416718 0.172668 0.260590
0.416718 0.172668 0.256836
0.416718 0.169403 0.256836
0.416718 0.169403 0.260590
0.416718 0.169403 0.260590
0.416718 0.169403 0.260590
0.412659 0.169403 0.260590
0.412659 0.166168 0.256836
0.412659 0.169403 0.256836
0.412659 0.169403 0.256836
0.412659 0.169403 0.253143
0.412659 0.169403 0.253143
0.412659 0.166168 0.256836
0.412659 0.166168 0.256836
0.412659 0.166168 0.256836
0.412659 0.166168 0.253143
0.408569 0.166168 0.253143
0.353333 0.120239 0.188660
0.353333 0.120239 0.188660
0.353333 0.120239 0.188660
0.353333 0.117340 0.188660
0.353333 0.117340 0.188660
0.353333 0.117340 0.188660
0.353333 0.117340 0.188660
0.353333 0.117340 0.188660
0.353333 0.117340 0.188660
0.353333 0.117340 0.185242
0.353333 0.117340 0.185242
0.353333 0.117340 0.185242
0.353333 0.117340 0.185242
0.353333 0.117340 0.185242
0.353333 0.117340 0.185242
0.348877 0.117340 0.185242
0.348877 0.114502 0.185242
0.348877 0.114502 0.185242
0.348877 0.114502 0.185242
0.348877 0.114502 0.185242
0.348877 0.114502 0.181824
0.348877 0.114502 0.181824
0.348877 0.114502 0.181824
0.348877 0.114502 0.181824
0.348877 0.114502 0.181824
0.348877 0.114502 0.181824
0.348877 0.114502 0.181824
0.348877 0.111664 0.181824
0.344452 0.111664 0.181824
0.344452 0.111664 0.178406
0.344452 0.111664 0.178406
0.344452 0.111664 0.178406
0.326324 0.097870 0.158325
0.326324 0.097870 0.158325
0.326324 0.097870 0.158325
0.326324 0.097870 0.158325
0.326324 0.097870 0.158325
0.326324 0.097870 0.158325
0.326324 0.097870 0.158325
0.326324 0.097870 0.158325
0.326324 0.097870 0.158325
0.326324 0.097870 0.158325
0.326324 0.097870 0.158325
0.326324 0.097870 0.158325
0.326324 0.097870 0.158325
0.326324 0.097870 0.158325
0.326324 0.097870 0.158325
0.326324 0.097870 0.158325
0.326324 0.097870 0.158325
0.326324 0.097870 0.158325
0.326324 0.097870 0.158325
0.326324 0.097870 0.158325
0.326324 0.095184 0.158325
0.321686 0.095184 0.158325
0.321686 0.095184 0.158325
0.321686 0.095184 0.158325
0.321686 0.095184 0.158325
0.321686 0.095184 0.158325
0.321686 0.095184 0.158325
0.321686 0.095184 0.158325
0.321686 0.095184 0.155029
0.321686 0.095184 0.155029
0.321686 0.095184 0.155029
0.321686 0.095184 0.155029
0.366455 0.126068 0.202576
0.366455 0.126068 0.202576
0.366455 0.126068 0.202576
0.366455 0.126068 0.202576
0.366455 0.126068 0.202576
0.366455 0.126068 0.202576
0.366455 0.126068 0.202576
0.366455 0.126068 0.202576
0.366455 0.126068 0.199066
0.366455 0.126068 0.199066
0.366455 0.126068 0.199066
0.366455 0.126068 0.199066
0.366455 0.126068 0.199066
0.366455 0.126068 0.199066
0.366455 0.126068 0.199066
0.366455 0.126068 0.199066
0.366455 0.126068 0.199066
0.366455 0.126068 0.199066
0.366455 0.126068 0.199066
0.366455 0.126068 0.199066
0.362122 0.126068 0.199066
0.362122 0.126068 0.199066
0.362122 0.126068 0.199066
0.362122 0.126068 0.199066
0.362122 0.126068 0.199066
0.362122 0.126068 0.199066
0.362122 0.126068 0.199066
0.362122 0.126068 0.199066
0.362122 0.126068 0.199066
0.362122 0.126068 0.199066
0.362122 0.126068 0.199066
0.362122 0.123138 0.195587
0.420776 0.172668 0.264313
0.420776 0.172668 0.264313
0.420776 0.172668 0.264313
0.420776 0.172668 0.264313
0.420776 0.172668 0.264313
0.420776 0.172668 0.264313
0.420776 0.172668 0.264313
0.420776 0.172668 0.264313
0.416718 0.172668 0.264313
0.416718 0.172668 0.264313
0.416718 0.172668 0.264313
0.416718 0.172668 0.264313
0.416718 0.172668 0.264313
0.416718 0.172668 0.264313
0.416718 0.172668 0.264313
0.416718 0.172668 0.264313
0.416718 0.172668 0.264313
0.416718 0.172668 0.264313
0.416718 0.172668 0.264313
0.416718 0.172668 0.260590
0.416718 0.172668 0.260590
0.416718 0.172668 0.260590
0.416718 0.172668 0.260590
0.416718 0.172668 0.260590
0.416718 0.172668 0.260590
0.416718 0.172668 0.260590
0.416718 0.172668 0.260590
0.416718 0.169403 0.260590
0.416718 0.169403 0.260590
0.416718 0.169403 0.260590
0.416718 0.169403 0.260590
0.412659 0.169403 0.256836
0.490601 0.245819 0.362000
0.490601 0.245819 0.362000
0.490601 0.245819 0.362000
0.490601 0.245819 0.362000
0.490601 0.245819 0.362000
0.490601 0.245819 0.362000
0.490601 0.245819 0.362000
0.490601 0.245819 0.362000
0.486847 0.245819 0.362000
0.486847 0.245819 0.362000
0.486847 0.245819 0.357910
0.486847 0.242126 0.357910
0.486847 0.242126 0.357910
0.486847 0.242126 0.353882
0.486847 0.242126 0.353882
0.486847 0.242126 0.357910
0.486847 0.242126 0.357910
0.483093 0.245819 0.357910
0.483093 0.245819 0.357910
0.483093 0.245819 0.357910
0.483093 0.245819 0.357910
0.483093 0.245819 0.357910
0.486847 0.245819 0.357910
0.486847 0.242126 0.357910
0.486847 0.242126 0.353882
0.486847 0.242126 0.349854
0.486847 0.238464 0.349854
0.483093 0.238464 0.353882
0.483093 0.238464 0.353882
0.483093 0.242126 0.353882
0.479309 0.242126 0.353882
0.483093 0.245819 0.362000
0.479309 0.185913 0.227509
0.479309 0.185913 0.227509
0.479309 0.185913 0.227509
0.479309 0.185913 0.227509
0.479309 0.185913 0.227509
0.479309 0.185913 0.227509
0.494324 0.199493 0.242065
0.197266 0.024414 0.038116
0.456360 0.166168 0.206085
0.479309 0.185913 0.227509
0.479309 0.185913 0.227509
0.479309 0.185913 0.227509
0.479309 0.185913 0.227509
0.483093 0.189301 0.231140
0.483093 0.189301 0.231140
0.479309 0.185913 0.227509
0.505402 0.209869 0.253143
0.684906 0.420685 0.466766
0.740479 0.502869 0.546112
0.767517 0.545837 0.586975
0.764496 0.540985 0.582367
0.788147 0.580017 0.619202
0.630249 0.347778 0.394775
0.000000 0.000000 0.000000
0.252960 0.043091 0.062836
0.505402 0.209869 0.253143
0.475555 0.182587 0.223907
0.475555 0.182587 0.223907
0.475555 0.182587 0.223907
0.479309 0.185913 0.227509
0.479309 0.185913 0.227509
0.475555 0.182587 0.223907
0.600311 0.311127 0.357910
0.603699 0.315155 0.362000
0.586761 0.295288 0.341827
0.579895 0.287476 0.333862
0.607025 0.319153 0.366028
0.548645 0.253235 0.298584
0.147003 0.013672 0.022888
0.130219 0.011017 0.018921
0.184326 0.021149 0.033569
0.203278 0.026123 0.040466
0.214844 0.029663 0.045227
0.231537 0.035187 0.052582
0.247711 0.041077 0.060242
0.263306 0.047241 0.068115
0.273499 0.051483 0.073517
0.283447 0.055908 0.079010
0.298096 0.062714 0.087433
0.307648 0.067413 0.093201
0.312347 0.069794 0.096069
0.326324 0.077148 0.104889
0.330872 0.079620 0.107880
0.339935 0.084717 0.113922
0.348877 0.089905 0.120026
0.357697 0.095184 0.126221
0.366455 0.100586 0.132507
0.375061 0.106079 0.138824
0.387817 0.114502 0.148499
0.391998 0.117340 0.151733
0.400330 0.123138 0.158325
0.404480 0.126068 0.161621
0.412659 0.131989 0.168304
0.420776 0.138000 0.175049
1.000000 1.000000 1.000000
1.000000 1.000000 1.000000
1.000000 1.000000 1.000000
1.000000 1.000000 1.000000
1.000000 1.000000 1.000000
1.000000 1.000000 1.000000
1.000000 1.000000 1.000000
0.307648 0.067413 0.093201
0.944672 0.877899 0.891724
1.000000 1.000000 1.000000
1.000000 1.000000 1.000000
1.000000 1.000000 1.000000
1.000000 1.000000 1.000000
1.000000 1.000000 1.000000
1.000000 1.000000 1.000000
1.000000 1.000000 1.000000
1.000000 1.000000 1.000000
1.000000 1.000000 1.000000
1.000000 1.000000 1.000000
1.000000 1.000000 1.000000
1.000000 1.000000 1.000000
1.000000 1.000000 1.000000
0.822937 0.640289 0.675476
0.000000 0.000000 0.000000
0.501709 0.206390 0.249420
1.000000 1.000000 1.000000
1.000000 1.000000 1.000000
1.000000 1.000000 1.000000
1.000000 1.000000 1.000000
1.000000 1.000000 1.000000
1.000000 1.000000 1.000000
1.000000 1.000000 1.000000
1.000000 1.000000 1.000000
1.000000 1.000000 1.000000
1.000000 1.000000 1.000000
1.000000 1.000000 1.000000
1.000000 1.000000 1.000000
1.000000 1.000000 1.000000
1.000000 1.000000 1.000000
0.339935 0.084717 0.113922
0.944672 0.877899 0.891724
1.000000 1.000000 1.000000
1.000000 1.000000 1.000000
1.000000 1.000000 1.000000
1.000000 1.000000 1.000000
1.000000 1.000000 1.000000
1.000000 1.000000 1.000000
1.000000 1.000000 1.000000
1.000000 1.000000 1.000000
1.000000 1.000000 1.000000
1.000000 1.000000 1.000000
1.000000 1.000000 1.000000
1.000000 1.000000 1.000000
1.000000 1.000000 1.000000
0.825806 0.645416 0.680237
0.000000 0.000000 0.000000
0.509064 0.213379 0.256836
1.000000 1.000000 1.000000
1.000000 1.000000 1.000000
1.000000 1.000000 1.000000
1.000000 1.000000 1.000000
1.000000 1.000000 1.000000
1.000000 1.000000 1.000000
1.000000 1.000000 1.000000
0.456360 0.166168 0.206085
0.456360 0.166168 0.206085
0.456360 0.166168 0.206085
0.456360 0.166168 0.206085
0.456360 0.166168 0.206085
0.456360 0.166168 0.206085
0.467926 0.175964 0.216736
0.226044 0.033295 0.050110
0.440735 0.153412 0.192108
0.460236 0.169403 0.209625
0.460236 0.169403 0.209625
0.460236 0.169403 0.209625
0.460236 0.169403 0.209625
0.460236 0.169403 0.209625
0.460236 0.169403 0.209625
0.460236 0.169403 0.209625
0.460236 0.169403 0.209625
0.460236 0.169403 0.209625
0.460236 0.169403 0.209625
0.460236 0.169403 0.209625
0.460236 0.169403 0.209625
0.467926 0.175964 0.216736
0.391998 0.117340 0.151733
0.298096 0.062714 0.087433
0.509064 0.213379 0.256836
0.456360 0.166168 0.206085
0.460236 0.169403 0.209625
0.460236 0.169403 0.209625
0.460236 0.169403 0.209625
0.460236 0.169403 0.209625
0.460236 0.169403 0.209625
0.460236 0.169403 0.209625
1.000000 1.000000 1.000000
1.000000 1.000000 1.000000
1.000000 1.000000 1.000000
1.000000 1.000000 1.000000
1.000000 1.000000 1.000000
1.000000 1.000000 1.000000
1.000000 1.000000 1.000000
1.000000 1.000000 1.000000
1.000000 1.000000 1.000000
1.000000 1.000000 1.000000
1.000000 1.000000 1.000000
1.000000 1.000000 1.000000
1.000000 1.000000 1.000000
1.000000 1.000000 1.000000
1.000000 1.000000 1.000000
1.000000 1.000000 1.000000
1.000000 1.000000 1.000000
1.000000 1.000000 1.000000
1.000000 1.000000 1.000000
1.000000 1.000000 1.000000
1.000000 1.000000 1.000000
1.000000 1.000000 1.000000
1.000000 1.000000 1.000000
1.000000 1.000000 1.000000
1.000000 1.000000 1.000000
1.000000 1.000000 1.000000
1.000000 1.000000 1.000000
1.000000 1.000000 1.000000
1.000000 1.000000 1.000000
1.000000 1.000000 1.000000
1.000000 1.000000 1.000000
1.000000 1.000000 1.000000
1.000000 1.000000 1.000000
1.000000 1.000000 1.000000
1.000000 1.000000 1.000000
1.000000 1.000000 1.000000
1.000000 1.000000 1.000000
1.000000 1.000000 1.000000
1.000000 1.000000 1.000000
0.796906 0.594910 0.633179
0.121399 0.009735 0.016998
0.084045 0.005280 0.009918
0.084045 0.005280 0.009918
0.064148 0.003418 0.006744
0.053925 0.002594 0.005280
0.064148 0.003418 0.006744
0.000000 0.000000 0.000000
0.053925 0.002594 0.005280
0.293243 0.060425 0.084595
0.258179 0.045166 0.065491
0.074249 0.004303 0.008301
0.093781 0.006287 0.011597
0.093781 0.006287 0.011597
0.093781 0.006287 0.011597
0.093781 0.006287 0.011597
0.093781 0.006287 0.011597
0.093781 0.006287 0.011597
0.093781 0.006287 0.011597
0.000000 0.000000 0.000000
0.231537 0.035187 0.052582
0.791107 0.584991 0.623871
1.000000 1.000000 1.000000
1.000000 1.000000 1.000000
1.000000 1.000000 1.000000
0.917725 1.000000 1.000000
0.917725 1.000000 1.000000
0.920471 1.000000 1.000000
0.920471 1.000000 1.000000
0.920471 1.000000 1.000000
0.920471 1.000000 1.000000
0.920471 1.000000 1.000000
0.920471 1.000000 1.000000
0.920471 1.000000 1.000000
0.920471 1.000000 1.000000
0.917725 1.000000 1.000000
0.917725 1.000000 1.000000
0.917725 1.000000 1.000000
0.917725 1.000000 1.000000
0.917725 1.000000 1.000000
0.917725 1.000000 1.000000
0.917725 1.000000 1.000000
0.917725 1.000000 1.000000
0.915039 1.000000 1.000000
0.915039 1.000000 1.000000
0.915039 1.000000 1.000000
0.915039 1.000000 1.000000
0.912292 1.000000 1.000000
0.912292 1.000000 1.000000
0.912292 1.000000 1.000000
0.909576 1.000000 1.000000
0.909576 1.000000 1.000000
0.909576 1.000000 1.000000
0.906860 1.000000 1.000000
0.906860 1.000000 1.000000
0.906860 1.000000 1.000000
0.904144 1.000000 1.000000
0.779327 0.718445 0.922333
0.779327 0.718445 0.922333
0.779327 0.718445 0.922333
0.779327 0.718445 0.922333
0.779327 0.718445 0.922333
0.779327 0.718445 0.922333
0.779327 0.718445 0.922333
0.779327 0.718445 0.922333
0.779327 0.718445 0.922333
0.779327 0.718445 0.922333
0.779327 0.718445 0.922333
0.779327 0.718445 0.917236
0.779327 0.718445 0.917236
0.779327 0.718445 0.917236
0.776367 0.713104 0.917236
0.776367 0.713104 0.917236
0.776367 0.713104 0.917236
0.776367 0.713104 0.917236
0.776367 0.713104 0.912109
0.776367 0.713104 0.912109
0.776367 0.707825 0.912109
0.773407 0.707825 0.912109
0.773407 0.707825 0.907013
0.773407 0.707825 0.907013
0.773407 0.702545 0.907013
0.773407 0.702545 0.907013
0.770447 0.702545 0.901886
0.770447 0.702545 0.901886
0.770447 0.697296 0.901886
0.770447 0.697296 0.896820
0.767517 0.697296 0.896820
0.767517 0.692047 0.891724
0.649811 0.474945 0.637817
0.649811 0.474945 0.637817
0.649811 0.474945 0.637817
0.649811 0.474945 0.637817
0.649811 0.474945 0.637817
0.649811 0.474945 0.637817
0.649811 0.474945 0.637817
0.649811 0.474945 0.637817
0.649811 0.474945 0.637817
0.649811 0.474945 0.637817
0.649811 0.470367 0.637817
0.649811 0.470367 0.637817
0.649811 0.470367 0.637817
0.646576 0.470367 0.637817
0.646576 0.470367 0.633179
0.646576 0.470367 0.633179
0.646576 0.470367 0.633179
0.646576 0.470367 0.633179
0.646576 0.470367 0.633179
0.646576 0.470367 0.633179
0.646576 0.465729 0.633179
0.646576 0.465729 0.633179
0.646576 0.465729 0.628510
0.643341 0.465729 0.628510
0.643341 0.465729 0.628510
0.643341 0.465729 0.628510
0.643341 0.461182 0.628510
0.643341 0.461182 0.623871
0.643341 0.461182 0.623871
0.640076 0.461182 0.623871
0.640076 0.461182 0.623871
0.640076 0.456604 0.619202
0.541565 0.315155 0.445282
0.541565 0.315155 0.445282
0.541565 0.315155 0.445282
0.541565 0.315155 0.445282
0.541565 0.315155 0.445282
0.541565 0.315155 0.445282
0.541565 0.311127 0.445282
0.541565 0.311127 0.445282
0.541565 0.311127 0.445282
0.541565 0.311127 0.445282
0.541565 0.311127 0.445282
0.541565 0.311127 0.445282
0.541565 0.311127 0.441010
0.541565 0.311127 0.441010
0.541565 0.311127 0.441010
0.541565 0.311127 0.441010
0.541565 0.311127 0.441010
0.541565 0.311127 0.441010
0.537994 0.311127 0.441010
0.537994 0.311127 0.441010
0.537994 0.311127 0.441010
0.537994 0.311127 0.441010
0.537994 0.307159 0.436768
0.537994 0.307159 0.436768
0.537994 0.307159 0.436768
0.537994 0.307159 0.436768
0.537994 0.307159 0.436768
0.537994 0.307159 0.436768
0.537994 0.307159 0.436768
0.534424 0.307159 0.432526
0.534424 0.303162 0.432526
0.534424 0.303162 0.432526
0.460236 0.216919 0.318054
0.460236 0.216919 0.318054
0.456360 0.216919 0.318054
0.456360 0.216919 0.318054
0.456360 0.216919 0.318054
0.456360 0.216919 0.318054
0.456360 0.216919 0.318054
0.456360 0.216919 0.314148
0.456360 0.216919 0.314148
0.456360 0.216919 0.314148
0.456360 0.213379 0.314148
0.456360 0.213379 0.314148
0.456360 0.213379 0.314148
0.456360 0.213379 0.314148
0.456360 0.213379 0.314148
0.456360 0.213379 0.314148
0.456360 0.213379 0.314148
0.460236 0.209869 0.314148
0.460236 0.209869 0.314148
0.460236 0.209869 0.318054
0.456360 0.209869 0.318054
0.456360 0.209869 0.314148
0.456360 0.213379 0.314148
0.456360 0.213379 0.314148
0.456360 0.213379 0.310211
0.456360 0.213379 0.310211
0.456360 0.209869 0.310211
0.452484 0.209869 0.310211
0.452484 0.209869 0.310211
0.452484 0.209869 0.314148
0.452484 0.206390 0.314148
0.456360 0.206390 0.310211
0.396179 0.153412 0.234741
0.396179 0.153412 0.234741
0.396179 0.153412 0.234741
0.396179 0.153412 0.234741
0.396179 0.153412 0.234741
0.396179 0.153412 0.234741
0.396179 0.153412 0.234741
0.396179 0.153412 0.234741
0.396179 0.153412 0.234741
0.396179 0.153412 0.234741
0.396179 0.153412 0.234741
0.396179 0.153412 0.234741
0.396179 0.153412 0.234741
0.396179 0.150299 0.234741
0.396179 0.150299 0.234741
0.396179 0.150299 0.234741
0.396179 0.150299 0.234741
0.396179 0.150299 0.234741
0.396179 0.150299 0.234741
0.396179 0.150299 0.234741
0.391998 0.150299 0.234741
0.391998 0.150299 0.234741
0.391998 0.150299 0.231140
0.391998 0.150299 0.231140
0.391998 0.150299 0.231140
0.391998 0.150299 0.231140
0.391998 0.150299 0.231140
0.391998 0.150299 0.231140
0.391998 0.150299 0.231140
0.391998 0.150299 0.231140
0.391998 0.150299 0.231140
0.391998 0.147186 0.231140
0.348877 0.111664 0.181824
0.348877 0.111664 0.181824
0.348877 0.111664 0.181824
0.348877 0.111664 0.181824
0.348877 0.111664 0.181824
0.348877 0.111664 0.181824
0.344452 0.111664 0.181824
0.344452 0.111664 0.181824
0.344452 0.111664 0.181824
0.344452 0.111664 0.181824
0.344452 0.111664 0.181824
0.344452 0.111664 0.178406
0.344452 0.111664 0.178406
0.344452 0.111664 0.178406
0.344452 0.111664 0.178406
0.344452 0.111664 0.178406
0.344452 0.111664 0.178406
0.344452 0.111664 0.178406
0.344452 0.111664 0.178406
0.344452 0.111664 0.178406
0.344452 0.111664 0.178406
0.344452 0.111664 0.178406
0.344452 0.111664 0.178406
0.344452 0.111664 0.178406
0.344452 0.111664 0.178406
0.344452 0.111664 0.178406
0.344452 0.111664 0.178406
0.344452 0.111664 0.178406
0.344452 0.111664 0.178406
0.344452 0.111664 0.178406
0.344452 0.111664 0.178406
0.344452 0.111664 0.178406
0.400330 0.156586 0.242065
0.400330 0.156586 0.242065
0.400330 0.156586 0.242065
0.400330 0.156586 0.242065
0.400330 0.156586 0.242065
0.400330 0.156586 0.242065
0.400330 0.156586 0.242065
0.400330 0.156586 0.242065
0.400330 0.156586 0.242065
0.400330 0.156586 0.242065
0.400330 0.156586 0.242065
0.400330 0.156586 0.242065
0.400330 0.156586 0.242065
0.400330 0.156586 0.238403
0.400330 0.156586 0.238403
0.400330 0.156586 0.238403
0.400330 0.156586 0.238403
0.400330 0.156586 0.238403
0.400330 0.156586 0.238403
0.400330 0.156586 0.238403
0.400330 0.153412 0.238403
0.400330 0.153412 0.238403
0.396179 0.153412 0.238403
0.396179 0.153412 0.238403
0.396179 0.153412 0.238403
0.396179 0.153412 0.238403
0.396179 0.153412 0.238403
0.396179 0.153412 0.238403
0.396179 0.153412 0.238403
0.396179 0.153412 0.238403
0.396179 0.153412 0.238403
0.396179 0.153412 0.234741
0.483093 0.242126 0.353882
0.483093 0.242126 0.353882
0.483093 0.242126 0.353882
0.483093 0.242126 0.353882
0.483093 0.242126 0.353882
0.483093 0.242126 0.353882
0.483093 0.242126 0.353882
0.483093 0.242126 0.353882
0.483093 0.242126 0.353882
0.483093 0.242126 0.353882
0.483093 0.242126 0.353882
0.483093 0.242126 0.353882
0.483093 0.242126 0.353882
0.483093 0.242126 0.353882
0.483093 0.242126 0.353882
0.483093 0.242126 0.353882
0.483093 0.242126 0.353882
0.483093 0.242126 0.353882
