res/luts/DANGER.CUBE
#Created by: Adobe Photoshop Export Color Lookup Plugin
TITLE "DANGER"
#LUT size
LUT_3D_SIZE 5
#data domain
#LUT data points
DOMAIN_MIN 0.000000 0.000000 0.000000
DOMAIN_MAX 0.903226 0.903226 0.903226
0.573029 0.351929 0.492859
0.569580 0.351929 0.492859
0.569580 0.351929 0.492859
0.569580 0.347778 0.488495
0.566101 0.347778 0.488495
0.353333 0.120239 0.188660
0.353333 0.117340 0.188660
0.353333 0.117340 0.185242
0.348877 0.114502 0.181824
0.344452 0.111664 0.181824
1.000000 1.000000 1.000000
0.307648 0.067413 0.093201
1.000000 1.000000 1.000000
1.000000 1.000000 1.000000
1.000000 1.000000 1.000000
0.649811 0.474945 0.637817
0.649811 0.474945 0.637817
0.646576 0.470367 0.633179
0.646576 0.465729 0.633179
0.643341 0.461182 0.623871
0.548645 0.323212 0.453857
0.548645 0.323212 0.453857
0.548645 0.323212 0.453857
0.548645 0.319153 0.453857
0.545074 0.319153 0.449554
0.569580 0.351929 0.492859
0.569580 0.351929 0.488495
0.569580 0.347778 0.488495
0.566101 0.347778 0.488495
0.566101 0.347778 0.484100
0.321686 0.097870 0.158325
0.298096 0.082184 0.135681
0.293243 0.077148 0.132507
0.293243 0.077148 0.132507
0.298096 0.079620 0.132507
1.000000 1.000000 1.000000
0.312347 0.069794 0.096069
1.000000 1.000000 1.000000
1.000000 1.000000 1.000000
1.000000 1.000000 1.000000
0.623657 0.434052 0.591553
0.623657 0.434052 0.591553
0.623657 0.429565 0.586975
0.620331 0.429565 0.582367
0.617035 0.420685 0.577850
0.559143 0.339539 0.475403
0.559143 0.335419 0.475403
0.559143 0.335419 0.471100
0.559143 0.335419 0.471100
0.555634 0.335419 0.466766
0.569580 0.351929 0.488495
0.569580 0.347778 0.488495
0.566101 0.347778 0.488495
0.566101 0.347778 0.484100
0.566101 0.343628 0.484100
0.307648 0.084717 0.142059
0.307648 0.084717 0.142059
0.307648 0.084717 0.142059
0.307648 0.084717 0.142059
0.307648 0.084717 0.138824
1.000000 1.000000 1.000000
0.321686 0.074646 0.101929
1.000000 1.000000 1.000000
1.000000 1.000000 1.000000
1.000000 1.000000 1.000000
0.600311 0.394440 0.546112
0.600311 0.394440 0.546112
0.600311 0.394440 0.541656
0.596954 0.390137 0.537140
0.593536 0.385803 0.532684
0.569580 0.351929 0.492859
0.569580 0.351929 0.488495
0.569580 0.351929 0.488495
0.569580 0.347778 0.488495
0.566101 0.347778 0.484100
0.569580 0.347778 0.488495
0.566101 0.347778 0.488495
0.566101 0.347778 0.484100
0.566101 0.343628 0.484100
0.562622 0.343628 0.479767
0.312347 0.089905 0.148499
0.312347 0.089905 0.148499
0.312347 0.089905 0.148499
0.312347 0.089905 0.145264
0.312347 0.087280 0.145264
1.000000 1.000000 1.000000
0.330872 0.079620 0.107880
1.000000 1.000000 1.000000
1.000000 1.000000 1.000000
1.000000 1.000000 1.000000
0.579895 0.364502 0.506073
0.576477 0.364502 0.506073
0.576477 0.360291 0.497284
0.576477 0.356110 0.497284
0.573029 0.356110 0.488495
0.579895 0.364502 0.506073
0.579895 0.364502 0.506073
0.579895 0.364502 0.506073
0.576477 0.360291 0.506073
0.576477 0.360291 0.501648
0.566101 0.347778 0.484100
0.566101 0.343628 0.484100
0.566101 0.343628 0.479767
0.562622 0.343628 0.479767
0.562622 0.339539 0.475403
0.321686 0.095184 0.155029
0.321686 0.095184 0.155029
0.321686 0.095184 0.155029
0.321686 0.092529 0.155029
0.317047 0.092529 0.151733
1.000000 1.000000 1.000000
0.335449 0.082184 0.110901
1.000000 1.000000 1.000000
1.000000 1.000000 1.000000
1.000000 1.000000 1.000000
0.552155 0.327240 0.462463
0.552155 0.327240 0.462463
0.552155 0.327240 0.462463
0.552155 0.323212 0.458130
0.548645 0.323212 0.453857
0.586761 0.377228 0.519318
0.586761 0.377228 0.519318
0.586761 0.372986 0.519318
0.586761 0.372986 0.519318
0.583344 0.372986 0.514923
