res/luts/DANGER.CUBE
#Created by: Adobe Photoshop Export Color Lookup Plugin
TITLE "DANGER"
#LUT size
LUT_3D_SIZE 8
#data domain
#LUT data points
DOMAIN_MIN 0.000000 0.000000 0.000000
DOMAIN_MAX 0.903226 0.903226 0.903226
0.573029 0.351929 0.492859
0.569580 0.351929 0.492859
0.569580 0.351929 0.492859
0.569580 0.351929 0.492859
0.569580 0.351929 0.488495
0.569580 0.347778 0.488495
0.569580 0.347778 0.488495
0.566101 0.347778 0.488495
0.512756 0.275909 0.394775
0.509064 0.272064 0.394775
0.509064 0.272064 0.390625
0.509064 0.272064 0.390625
0.509064 0.268250 0.390625
0.505402 0.268250 0.386505
0.505402 0.268250 0.386505
0.505402 0.264465 0.382385
0.326324 0.097870 0.158325
0.326324 0.097870 0.158325
0.326324 0.097870 0.158325
0.326324 0.097870 0.158325
0.326324 0.097870 0.158325
0.326324 0.095184 0.158325
0.321686 0.095184 0.158325
0.321686 0.095184 0.155029
0.479309 0.185913 0.227509
0.479309 0.185913 0.227509
0.456360 0.166168 0.206085
0.479309 0.185913 0.227509
0.505402 0.209869 0.253143
0.764496 0.540985 0.582367
0.252960 0.043091 0.062836
0.475555 0.182587 0.223907
0.456360 0.166168 0.206085
0.456360 0.166168 0.206085
0.440735 0.153412 0.192108
0.460236 0.169403 0.209625
0.460236 0.169403 0.209625
0.460236 0.169403 0.209625
0.509064 0.213379 0.256836
0.460236 0.169403 0.209625
0.779327 0.718445 0.922333
0.779327 0.718445 0.922333
0.779327 0.718445 0.922333
0.779327 0.718445 0.917236
0.776367 0.713104 0.917236
0.776367 0.707825 0.912109
0.773407 0.702545 0.907013
0.770447 0.697296 0.901886
0.396179 0.153412 0.234741
0.396179 0.153412 0.234741
0.396179 0.153412 0.234741
0.396179 0.153412 0.234741
0.396179 0.150299 0.234741
0.391998 0.150299 0.234741
0.391998 0.150299 0.231140
0.391998 0.150299 0.231140
0.548645 0.323212 0.453857
0.548645 0.323212 0.453857
0.548645 0.323212 0.453857
0.548645 0.323212 0.453857
0.548645 0.323212 0.453857
0.548645 0.319153 0.453857
0.545074 0.319153 0.453857
0.545074 0.319153 0.449554
0.569580 0.351929 0.492859
0.569580 0.351929 0.492859
0.569580 0.351929 0.492859
0.569580 0.351929 0.488495
0.569580 0.347778 0.488495
0.569580 0.347778 0.488495
0.566101 0.347778 0.488495
0.566101 0.347778 0.484100
0.509064 0.268250 0.390625
0.505402 0.268250 0.386505
0.505402 0.268250 0.386505
0.505402 0.264465 0.386505
0.505402 0.264465 0.382385
0.501709 0.264465 0.382385
0.501709 0.260712 0.378296
0.501709 0.260712 0.378296
0.330872 0.100586 0.161621
0.330872 0.100586 0.161621
0.330872 0.100586 0.161621
0.330872 0.100586 0.161621
0.330872 0.100586 0.161621
0.326324 0.100586 0.161621
0.326324 0.097870 0.161621
0.326324 0.097870 0.161621
0.494324 0.199493 0.242065
0.494324 0.199493 0.242065
0.464081 0.172668 0.213165
0.494324 0.199493 0.242065
0.516388 0.220459 0.264313
0.782257 0.570190 0.609955
0.258179 0.045166 0.065491
0.490601 0.196075 0.238403
1.000000 1.000000 1.000000
1.000000 1.000000 1.000000
1.000000 1.000000 1.000000
1.000000 1.000000 1.000000
1.000000 1.000000 1.000000
1.000000 1.000000 1.000000
1.000000 1.000000 1.000000
1.000000 1.000000 1.000000
0.761536 0.681580 0.881561
0.761536 0.681580 0.881561
0.761536 0.681580 0.881561
0.761536 0.681580 0.881561
0.761536 0.681580 0.876526
0.758545 0.676392 0.871460
0.755554 0.671173 0.866425
0.752533 0.666016 0.861359
0.387817 0.147186 0.227509
0.387817 0.147186 0.223907
0.387817 0.147186 0.227509
0.387817 0.147186 0.227509
0.387817 0.147186 0.227509
0.387817 0.144104 0.223907
0.387817 0.144104 0.223907
0.387817 0.144104 0.223907
0.555634 0.331329 0.466766
0.555634 0.331329 0.466766
0.555634 0.331329 0.466766
0.555634 0.331329 0.466766
0.555634 0.331329 0.462463
0.552155 0.327240 0.462463
0.552155 0.327240 0.462463
0.552155 0.327240 0.462463
0.569580 0.351929 0.492859
0.569580 0.351929 0.492859
0.569580 0.351929 0.488495
0.569580 0.347778 0.488495
0.569580 0.347778 0.488495
0.566101 0.347778 0.488495
0.566101 0.347778 0.484100
0.566101 0.347778 0.484100
0.501709 0.264465 0.382385
0.501709 0.264465 0.382385
0.501709 0.260712 0.378296
0.501709 0.260712 0.378296
0.498016 0.260712 0.378296
0.498016 0.256958 0.374176
0.498016 0.256958 0.374176
0.494324 0.256958 0.370117
0.335449 0.103333 0.168304
0.335449 0.103333 0.168304
0.335449 0.103333 0.168304
0.335449 0.103333 0.168304
0.330872 0.103333 0.164948
0.330872 0.103333 0.164948
0.330872 0.103333 0.164948
0.330872 0.100586 0.164948
0.505402 0.209869 0.253143
0.505402 0.209869 0.253143
0.475555 0.182587 0.223907
0.505402 0.209869 0.253143
0.527252 0.231201 0.275635
0.802734 0.604919 0.642517
0.268463 0.049347 0.070801
0.501709 0.206390 0.249420
1.000000 1.000000 1.000000
1.000000 1.000000 1.000000
1.000000 1.000000 1.000000
1.000000 1.000000 1.000000
1.000000 1.000000 1.000000
1.000000 1.000000 1.000000
1.000000 1.000000 1.000000
1.000000 1.000000 1.000000
0.743530 0.645416 0.841278
0.743530 0.645416 0.841278
0.743530 0.645416 0.841278
0.743530 0.650513 0.836273
0.743530 0.645416 0.841278
0.740479 0.640289 0.831268
0.737457 0.635223 0.826294
0.737457 0.630096 0.821320
0.379333 0.141022 0.216736
0.379333 0.141022 0.216736
0.379333 0.141022 0.216736
0.379333 0.138000 0.216736
0.379333 0.138000 0.216736
0.379333 0.138000 0.216736
0.379333 0.138000 0.216736
0.379333 0.138000 0.213165
0.562622 0.339539 0.475403
0.562622 0.339539 0.475403
0.562622 0.339539 0.475403
0.559143 0.339539 0.475403
0.559143 0.339539 0.475403
0.559143 0.335419 0.475403
0.559143 0.335419 0.471100
0.559143 0.335419 0.471100
0.569580 0.351929 0.492859
0.569580 0.351929 0.488495
0.569580 0.347778 0.488495
0.569580 0.347778 0.488495
0.566101 0.347778 0.488495
0.566101 0.347778 0.484100
0.566101 0.347778 0.484100
0.566101 0.343628 0.484100
0.498016 0.260712 0.374176
0.498016 0.256958 0.374176
0.498016 0.256958 0.374176
0.494324 0.256958 0.370117
0.494324 0.253235 0.370117
0.494324 0.253235 0.366028
0.494324 0.253235 0.366028
0.490601 0.249481 0.366028
0.339935 0.106079 0.171661
0.339935 0.106079 0.171661
0.339935 0.106079 0.171661
0.339935 0.106079 0.171661
0.335449 0.106079 0.171661
0.335449 0.106079 0.171661
0.335449 0.106079 0.171661
0.335449 0.106079 0.168304
0.516388 0.220459 0.264313
0.520020 0.224030 0.268066
0.490601 0.196075 0.238403
0.516388 0.220459 0.264313
0.541565 0.245819 0.290894
0.822937 0.640289 0.675476
0.273499 0.051483 0.073517
0.512756 0.216919 0.260590
1.000000 1.000000 1.000000
1.000000 1.000000 1.000000
1.000000 1.000000 1.000000
1.000000 1.000000 1.000000
1.000000 1.000000 1.000000
1.000000 1.000000 1.000000
1.000000 1.000000 1.000000
1.000000 1.000000 1.000000
0.728333 0.614960 0.801453
0.728333 0.614960 0.801453
0.728333 0.614960 0.801453
0.728333 0.614960 0.801453
0.725281 0.609894 0.796539
0.725281 0.609894 0.796539
0.722229 0.604919 0.791565
0.719147 0.599884 0.786682
0.375061 0.134979 0.213165
0.375061 0.134979 0.209625
0.375061 0.134979 0.209625
0.375061 0.134979 0.209625
0.375061 0.134979 0.209625
0.375061 0.131989 0.209625
0.370789 0.131989 0.209625
0.370789 0.131989 0.206085
0.566101 0.347778 0.484100
0.566101 0.347778 0.484100
0.566101 0.347778 0.484100
0.566101 0.347778 0.484100
0.566101 0.347778 0.484100
0.566101 0.343628 0.484100
0.566101 0.343628 0.484100
0.562622 0.343628 0.479767
0.569580 0.351929 0.488495
0.569580 0.347778 0.488495
0.569580 0.347778 0.488495
0.566101 0.347778 0.488495
0.566101 0.347778 0.484100
0.566101 0.347778 0.484100
0.566101 0.343628 0.484100
0.566101 0.343628 0.479767
0.494324 0.253235 0.370117
0.494324 0.253235 0.366028
0.494324 0.253235 0.366028
0.490601 0.249481 0.366028
0.490601 0.249481 0.362000
0.490601 0.249481 0.362000
0.486847 0.245819 0.357910
0.486847 0.245819 0.357910
0.344452 0.111664 0.178406
0.344452 0.111664 0.178406
0.344452 0.111664 0.178406
0.344452 0.111664 0.178406
0.344452 0.111664 0.178406
0.344452 0.108887 0.178406
0.344452 0.108887 0.175049
0.339935 0.108887 0.175049
0.530823 0.234802 0.279419
0.530823 0.234802 0.279419
0.498016 0.202942 0.245728
0.530823 0.234802 0.279419
0.555634 0.260712 0.306335
0.842896 0.676392 0.708893
0.278503 0.053680 0.076263
0.527252 0.231201 0.275635
1.000000 1.000000 1.000000
1.000000 1.000000 1.000000
1.000000 1.000000 1.000000
1.000000 1.000000 1.000000
1.000000 1.000000 1.000000
1.000000 1.000000 1.000000
1.000000 1.000000 1.000000
1.000000 1.000000 1.000000
0.712982 0.584991 0.767029
0.709900 0.584991 0.767029
0.712982 0.584991 0.767029
0.712982 0.584991 0.767029
0.709900 0.580017 0.762115
0.709900 0.580017 0.762115
0.703674 0.570190 0.757263
0.700592 0.565308 0.752380
0.370789 0.128998 0.206085
0.370789 0.128998 0.206085
0.366455 0.128998 0.202576
0.366455 0.128998 0.202576
0.366455 0.128998 0.202576
0.366455 0.128998 0.202576
0.366455 0.128998 0.202576
0.366455 0.126068 0.202576
0.573029 0.356110 0.497284
0.573029 0.356110 0.497284
0.573029 0.356110 0.497284
0.573029 0.356110 0.492859
0.573029 0.351929 0.492859
0.569580 0.351929 0.492859
0.569580 0.351929 0.492859
0.569580 0.351929 0.492859
0.569580 0.347778 0.488495
0.569580 0.347778 0.488495
0.566101 0.347778 0.488495
0.566101 0.347778 0.484100
0.566101 0.347778 0.484100
0.566101 0.343628 0.484100
0.566101 0.343628 0.479767
0.562622 0.343628 0.479767
0.490601 0.249481 0.362000
0.486847 0.245819 0.362000
0.486847 0.245819 0.357910
0.486847 0.245819 0.357910
0.486847 0.242126 0.353882
0.483093 0.242126 0.353882
0.483093 0.242126 0.349854
0.483093 0.238464 0.349854
0.348877 0.114502 0.185242
0.348877 0.114502 0.185242
0.348877 0.114502 0.181824
0.348877 0.114502 0.181824
0.348877 0.114502 0.181824
0.348877 0.114502 0.181824
0.348877 0.114502 0.181824
0.348877 0.114502 0.181824
0.545074 0.249481 0.294708
0.545074 0.249481 0.294708
0.512756 0.216919 0.260590
0.545074 0.249481 0.294708
0.566101 0.272064 0.318054
0.865417 0.718445 0.747528
0.288391 0.058136 0.081818
0.537994 0.242126 0.287048
1.000000 1.000000 1.000000
1.000000 1.000000 1.000000
1.000000 1.000000 1.000000
1.000000 1.000000 1.000000
1.000000 1.000000 1.000000
1.000000 1.000000 1.000000
1.000000 1.000000 1.000000
1.000000 1.000000 1.000000
0.694366 0.555542 0.732941
0.694366 0.555542 0.732941
0.694366 0.555542 0.732941
0.697479 0.550659 0.732941
0.691223 0.550659 0.728119
0.691223 0.545837 0.728119
0.688080 0.545837 0.723297
0.684906 0.536194 0.718506
0.362122 0.126068 0.199066
0.362122 0.126068 0.199066
0.362122 0.126068 0.199066
0.362122 0.126068 0.199066
0.362122 0.123138 0.195587
0.362122 0.123138 0.195587
0.362122 0.123138 0.195587
0.362122 0.123138 0.195587
0.576477 0.364502 0.506073
0.576477 0.360291 0.506073
0.576477 0.360291 0.506073
0.576477 0.360291 0.501648
0.576477 0.360291 0.501648
0.576477 0.360291 0.501648
0.576477 0.360291 0.501648
0.576477 0.360291 0.501648
0.566101 0.347778 0.488495
0.566101 0.347778 0.484100
0.566101 0.347778 0.484100
0.566101 0.347778 0.484100
0.566101 0.343628 0.484100
0.566101 0.343628 0.479767
0.562622 0.343628 0.479767
0.562622 0.343628 0.479767
0.483093 0.242126 0.353882
0.483093 0.242126 0.353882
0.483093 0.238464 0.349854
0.483093 0.238464 0.349854
0.479309 0.238464 0.349854
0.479309 0.234802 0.345856
0.479309 0.234802 0.345856
0.475555 0.234802 0.341827
0.353333 0.120239 0.188660
0.353333 0.120239 0.188660
0.353333 0.117340 0.188660
0.353333 0.117340 0.188660
0.353333 0.117340 0.188660
0.353333 0.117340 0.188660
0.353333 0.117340 0.188660
0.353333 0.117340 0.185242
0.555634 0.260712 0.306335
0.555634 0.260712 0.306335
0.523621 0.227600 0.271820
0.555634 0.260712 0.306335
0.583344 0.291382 0.337860
0.884888 0.755920 0.781738
0.293243 0.060425 0.084595
0.552155 0.256958 0.302460
1.000000 1.000000 1.000000
1.000000 1.000000 1.000000
1.000000 1.000000 1.000000
1.000000 1.000000 1.000000
1.000000 1.000000 1.000000
1.000000 1.000000 1.000000
1.000000 1.000000 1.000000
1.000000 1.000000 1.000000
0.678589 0.526611 0.699310
0.678589 0.526611 0.699310
0.678589 0.526611 0.699310
0.678589 0.526611 0.699310
0.678589 0.521820 0.699310
0.675446 0.521820 0.694489
0.675446 0.517090 0.689758
0.672272 0.512329 0.684967
0.357697 0.120239 0.192108
0.357697 0.120239 0.192108
0.357697 0.120239 0.192108
0.357697 0.120239 0.192108
0.357697 0.120239 0.192108
0.357697 0.120239 0.188660
0.353333 0.120239 0.188660
0.353333 0.117340 0.188660
0.583344 0.368713 0.514923
0.583344 0.368713 0.514923
0.583344 0.368713 0.514923
0.583344 0.368713 0.510468
0.579895 0.368713 0.510468
0.579895 0.368713 0.510468
0.579895 0.364502 0.510468
0.579895 0.364502 0.510468
0.566101 0.347778 0.484100
0.566101 0.347778 0.484100
0.566101 0.343628 0.484100
0.566101 0.343628 0.484100
0.562622 0.343628 0.479767
0.562622 0.343628 0.479767
0.562622 0.339539 0.479767
0.562622 0.339539 0.475403
0.479309 0.234802 0.345856
0.479309 0.234802 0.345856
0.475555 0.234802 0.341827
0.475555 0.231201 0.341827
0.475555 0.231201 0.341827
0.475555 0.231201 0.337860
0.471710 0.227600 0.337860
0.471710 0.227600 0.333862
0.362122 0.123138 0.195587
0.362122 0.123138 0.195587
0.362122 0.123138 0.195587
0.357697 0.123138 0.195587
0.357697 0.123138 0.195587
0.357697 0.123138 0.192108
0.357697 0.120239 0.192108
0.357697 0.120239 0.192108
0.569580 0.275909 0.321991
0.569580 0.275909 0.321991
0.534424 0.238464 0.283234
0.576477 0.283600 0.329895
0.593536 0.303162 0.349854
0.856995 0.702545 0.732941
0.112427 0.008545 0.015137
0.147003 0.013672 0.022888
1.000000 1.000000 1.000000
1.000000 1.000000 1.000000
1.000000 1.000000 1.000000
1.000000 1.000000 1.000000
1.000000 1.000000 1.000000
1.000000 1.000000 1.000000
1.000000 1.000000 1.000000
1.000000 1.000000 1.000000
0.662689 0.498199 0.666016
0.662689 0.498199 0.666016
0.662689 0.498199 0.666016
0.662689 0.498199 0.670776
0.662689 0.493500 0.661316
0.659485 0.493500 0.661316
0.659485 0.488861 0.656586
0.656281 0.484192 0.651886
0.353333 0.117340 0.185242
0.353333 0.117340 0.185242
0.353333 0.117340 0.185242
0.353333 0.117340 0.185242
0.348877 0.117340 0.185242
0.348877 0.114502 0.185242
0.348877 0.114502 0.185242
0.348877 0.114502 0.181824
0.586761 0.377228 0.519318
0.586761 0.377228 0.519318
0.586761 0.377228 0.519318
0.586761 0.377228 0.519318
0.586761 0.372986 0.519318
0.586761 0.372986 0.519318
0.583344 0.372986 0.519318
0.583344 0.372986 0.514923
